X:1
T:Mon cueur se recommande
T:Severin Cornet
T:Source : La fleur des chansons à 3---Louvain---P.Phalèse---1574. Editor: André Vierendeels (02/09/18) Notes : Original clefs : G2, C2, C3 Original note values have been halved Editorial accidentals above the staff Square bracket indicates ligature
T:Mon cueur se recommande
T:©
T:©
T:©
T:©
T:©
T:©
C:Severin Cornet
Z:©
%%score [ 1 2 3 ]
L:1/8
Q:1/4=120
M:2/2
K:F
V:1 treble nm="Soprano" snm="S"
V:2 treble nm="Alto" snm="A"
V:3 treble-8 nm="Tenor" snm="T"
V:1
 d2 d2 G2 d2- | dd f4 _e2 | d2 z d d2 c2 | cA B4 A2 | G4 z2 d2 | f6 e2 | d2 d2 c4 | %7
w: Mon cueur se re-|* com- man- de'à|vous, mon cueur se|re- com- man- de'à|vous, tout|plain d'en-|nuy et de|
"^-natural" A2 d3 c/B/ c2 | A2 f4 d2- | d2 c2 d3 c/B/ | c4 d4 | z2 d2 f2 e2 | cdcB A2 d2 | %13
w: mar- ty- * * *|re, et de|_ mar- ty- * *|* re,|au moins en|des- pit des ia- loux, en|
 ffed ^c4 | z2 d3 d G2 | ccBB A2 A2 | z d2 d =B2 c2 | A4 dd c2- | cBAG A4 | =B3 c d4 | z2 d2 d3 d | %21
w: des- pit des ia- loux,|fai- tes qu'à|dieu vous puis- se di- re,|fai- tes qu'à dieu|vous puis- se di-||* * re,|ma bou- che|
"^b""^-natural" d2 f2 B2 e2 | d3 c/B/ AGAB | c4 A4 | z2 A2 B2 A2 | z2 f2 d3 c- | cB A4 A2 | %27
w: qui vous sou- loit|ri- * * * * * *|* re,|et con- ter|pro- pos gra-|* ti eux, et|
 B2 A3 d2 d | cB A2 z4 | f2 ff dddB | c4 d4- | d4 z2 f2 | ffff dd d2 | dgff ed ^c2 | d3 c/B/ A4- | %35
w: con- ter pro- pos|gra- ti- eux,|ne fait mai- te- nant que mau-|di- re,|_ ne|fait main- te- nant que mau- di-|re, main- te- nant que mau- di-|* * * re,|
 A4 z2 d2 | c2 c2 ffBc | d3 c/B/ A4- | A4 z2 d2 | c2 d2 fedc | d2 c2 B2 AG | B2 A2 G3 F/E/ | %42
w: _ ceux|qui m'ont ban- ny de voz|yeux, _ _ _|_ ceux|qui m'ont ban- * * *|* ny de _ _|_ _ _ _ _|
 D4 z2 d2 | B2 B2 e2 d2 | c2 c2 =B4- | B8 |] %46
w: * ceux|qui m'ont ban- ny|de voz yeux,|_|
V:2
 z4 z2 G2 | G2 D2 G3 G | B2 A2 ^F2 A2 | AD G4 F2 | G3 F/E/ D4 | z2 A2 B4- | B2 A2 G2 G2 | %7
w: Mon|cueur se re- com-|man- de'à vous,, se|re- com- man- de'à|vous, _ _ _|tout plain|_ d'en- nuy et|
 F2 F2 E4 | D4 z2 B2- | B2 A2 F2 B2- | BA/G/ A2 B2 F2 | B4 z2 G2 | ABAG F2 z D | AAGG E2 A2- | %14
w: de mar- ty-|re, et|_ de mar- ty-|* * * * re, au|moins en|des- pit des ia- loux, en|des- pit des ia- loux, fai-|
 AA ^F2 G2 E2 | AA G4 ^F2 | z2 G3 G E2 | F2 F2 FG A2- | AG G3 ^F/E/ F2 | G4 z2 G2 | %20
w: * tes qu'à dieu vous|puis- se di- re,|fai- tes qu'à|dieu vous puis- se di-||re, ma|
"^b" B3 B B2 A2 | B2 A2 GFGA | B3 A/G/ FEFG | A2 E2 z2 ^F2 | G2 ^F2 z2 F2 | G2 A F2 F D/E/F/G/ | %26
w: bou- che qui vous|sou- loit ri- * * *||* re, et|con- ter et|con- ter pro- pos gra- * * *|
 AG ^F2 z2 F2 | G2 F2 FF D/E/F/G/ | AG ^F2 z2 B2 | BBAA BG B2- | BA/G/ A2 B2 z F | FFFF D2 D2 | %32
w: * ti- eux, et|con- ter pro- pos gra- * * *|* ti- eux, ne|fait main- te- nant que mau- di-|* * * * re, ne|fait main- te- nant que mau-|
 A2 A2 z BBB- | BB A2 GF E2 | D4 z2 A2 | F2 F2 BBFG | A2 A4 G2 | ^F4 z2 A2 | %38
w: di- re, ne fait main-|* te- nant que mau- di-|re, ceux|qui m'ont ban- ny de voz|yeux, de voz|yeux, ceux|
"^-natural" F2 F2 B2 AG | AGFE DCB,A, | G,2 G2 FD G2- | G2 ^F2 G2 z G | F2 F2 B3 A | GF G2 G2 G2- | %44
w: qui m'ont ban- ny _|_ _ _ _ _ _ _ _|* * * de voz-|* * yeux, ceux|qui m'ont ban- *|* * * ny de|
 G2 ^F2 G4- | G8 |] %46
w: _ voz yeux.|_|
V:3
 z8 | z4 d2 c2 | G2 d3 d f2- | f2 _e2 d4 | z2 G2 B4- | B2 A2 G2 g2- | g2 f4 e2 | d4 A4 | f4 d2 B2 | %9
w: |Mon cueur|se re- com- man-|* de'à vous|tout plain|_ d'en- nuy et|_ de mar-|* re,|et de mar-|
 f4 B4 | z2 F2 B4 | z2 G2 d2 c2 | fBfg d2 z f | dAcG A4 | d3 d =B2 cc | F2 G2 d4 | G4 z4 | %17
w: ty- re,|au moins,|au moins en|des- pit des ia- loux, en|des- pit des ia- loux,|fai- tes qu'à dieu vous|puis- se di-|re,|
 d3 d B2 fF | c2 _e2 d4 | G8 | z2 G2 g2 ^f2 | g2 d2 _e2 c2 | GABc d3 c/B/ | AG A2 D2 z d | %24
w: fai- tes qu'à dieu vous|puis- se di-|re,|ma bou- che|qui vous sou- loit|ri- * * * * * *|* * * re, et|
 G2 d2 z2 d2 | _e2 d2 B2 BF- | FG d2 z2 d2 |"^-natural" G2 d d2 B B/c/d/e/ | fg d2 _e2 ee | %29
w: con- ter, et|con- ter pro- pos gra-|* ti- eux, et|con- ter pro- pos gra- * * *|* ti- eux, ne fait main-|
 dddd g4 | f4 B4 | z2 B2 BBBB | AA d2 G2 z g | ggdf cd A2 | d8 | z2 d2 B2 B2 | f2 f2 d2 _e2 | d8 | %38
w: te- nant qu mau- di-|* re,|ne fait main- te- nant|que mau- di- re, ne|fait main- te- nant que mau- di-|re,|ceux qui m'ont|ban- nu de voz|yeux,|
 z2 d2 B2 B2 | fedc B4- |"^b" B2 c2 dB _e2 | d4 G4 | z2 d2 B2 B2 | _e3 d c2 B2 | A2 A2 G4- | G8 |] %46
w: ceux qui m'ont|ban- * * * *|* * * ny de|voz yeux,|ceux qui m'ont|ban- * * ny|de voz yeux.|_|

